X:1
T:Uffingham, LM
T:Uffingham, LM
T:Jeremiah  Clark, 1701
T:Public Domain Courtesy of the Cyber Hymnal™
C:Jeremiah  Clark, 1701
Z:Public Domain
Z:Courtesy of the Cyber Hymnal™
%%score ( 1 2 ) ( 3 4 )
L:1/8
Q:1/4=115
M:3/4
K:Bb
V:1 treble 
V:2 treble 
V:3 bass 
V:4 bass 
V:1
 [DG]2 (GF) [CE]2 | D4 [DA]2 | (B2 A2) G2 | [D^F]6 | [Fd]2 [Fd]2 [Fd]2 | c4 [DB]2 | %6
 [Ec]2 [DB]2 [CA]2 | [DB]6 | [Ff]2 [Ff]2 [Ae]2 | [Bd]4 [Fd]2 | (d2 z) [GB]2 x | [^FA]4 [DA]2 | %12
 (B2 A2) G2 | [D^F]4 d2 | ([Ec]2 [DB]2) A2 x2 | [B,G]6 |] %16
V:2
 x2 D2 x2 | D4 x2 | D4 (DC) | x6 | x6 | (F2 E2) x2 | x6 | x6 | x6 | x6 | F3 (c2 ^F) | x6 | %12
 D4 (DC) | x4 (G=F) | x4 (DC) x2 | x6 |] %16
V:3
 [G,,B,]2 [G,,B,]2 [A,,F,]2 | [B,,F,]4 [D,^F,]2 | G,2 [F,D]2 [E,G,]2 | [D,A,]6 | %4
 [B,,B,]2 [B,,B,]2 [B,,B,]2 | [F,A,]4 [G,B,]2 | [E,G,]2 F,4 | [B,,F,]6 | [B,,D]2 [B,,D]2 [F,C]2 | %9
 B,4 B,2 | B,2 [A,C]2 [G,D]2 | [D,D]4 [D,^F,]2 | G,2 [F,D]2 [E,G,]2 | [D,A,]4 [B,,G,]2 | %14
 G,4 z2 ^F,2 | [G,,G,]6 |] %16
V:4
 x6 | x6 | G,2 x4 | x6 | x6 | x6 | x2 F,4 | x6 | x6 | B,4 B,2 | B,2 x4 | x6 | G,2 x4 | x6 | %14
 C,2 D,4 x2 | x6 |] %16

